packages/icons/src/lib/svgs/chevron-down.svg

<svg
        aria-hidden="true"
        data-testid="test-icon"
        fill="none"
        
        viewBox="0 0 24 24"
        
        xmlns="http://www.w3.org/2000/svg"
        
    >
        <title>chevron down icon</title>
        <path
            d="M11.7348 15.8819C11.8908 16.0394 12.1092 16.0394 12.2652 15.8819L16.883 11.252C17.039 11.126 17.039 10.874 16.883 10.7165L16.259 10.1181C16.1342 9.96063 15.8846 9.96063 15.7285 10.1181L12.0156 13.8346L8.27145 10.1181C8.11544 9.96063 7.89704 9.96063 7.74103 10.1181L7.117 10.7165C6.961 10.874 6.961 11.126 7.117 11.252L11.7348 15.8819Z"
            fill="currentColor"
        />
    </svg>

<svg aria-hidden="true" data-testid="test-icon" fill="currentColor" viewBox="0 0 24 24" xmlns="http://www.w3.org/2000/svg"><path d="M11.735 15.882a.357.357 0 00.53 0l4.618-4.63c.156-.126.156-.378 0-.536l-.624-.598c-.125-.157-.374-.157-.53 0l-3.713 3.717-3.745-3.717a.357.357 0 00-.53 0l-.624.598c-.156.158-.156.41 0 .536l4.618 4.63z"/></svg>
